X: 1
P: Delvine Side
Z: John Chambers <jc@trillian.mit.edu>
M: C|
L: 1/8
K: EDorian
B2 \
|: "Em"E>e d/c/B/c/ d-<E B>A | "Em"E>e d/c/B/c/ "D"d-<D A>F | "Em"E>e d/c/B/c/ d-<E E>g | "D"f-<a e>f "(Bm)"d>B A-<F :|
|| "Em"B-<E B>A B>E B-<e | B-<E B>A "D"d>B A-<F | "Em"B-<E B>A B>E B-<g | "D"f-<a e>f "(Bm)"d>B A-<F ||
|| "Em"B-<E B>A B>E B-<e | B-<E B>A "D"d>B A-<F | "C"E>F G>A "G"B>A B-<g | | "D"f-<a e>f "(Bm)"d>F B/A/G/F/ |] "Em"HE4 |]
